humanity-icon-theme/Humanity/apps/22/preferences-desktop-accessibility.svg

<?xml version="1.0" encoding="UTF-8" standalone="no"?>
<!-- Created with Inkscape (http://www.inkscape.org/) -->
<svg
   xmlns:svg="http://www.w3.org/2000/svg"
   xmlns="http://www.w3.org/2000/svg"
   xmlns:xlink="http://www.w3.org/1999/xlink"
   version="1.0"
   width="22"
   height="22"
   id="svg3275">
  <defs
     id="defs3277">
    <linearGradient
       id="linearGradient2490-182-124">
      <stop
         id="stop2788"
         style="stop-color:#1f4b6a;stop-opacity:1"
         offset="0" />
      <stop
         id="stop2790"
         style="stop-color:#4083c2;stop-opacity:1"
         offset="1" />
    </linearGradient>
    <linearGradient
       id="linearGradient3242-187-536">
      <stop
         id="stop2778"
         style="stop-color:#8badea;stop-opacity:1"
         offset="0" />
      <stop
         id="stop2780"
         style="stop-color:#6396cd;stop-opacity:1"
         offset="0.26238" />
      <stop
         id="stop2782"
         style="stop-color:#3b7caf;stop-opacity:1"
         offset="0.66093999" />
      <stop
         id="stop2784"
         style="stop-color:#194c70;stop-opacity:1"
         offset="1" />
    </linearGradient>
    <linearGradient
       id="linearGradient4873">
      <stop
         id="stop4875"
         style="stop-color:#ffffff;stop-opacity:1"
         offset="0" />
      <stop
         id="stop4877"
         style="stop-color:#ffffff;stop-opacity:0"
         offset="1" />
    </linearGradient>
    <linearGradient
       x1="63.397362"
       y1="-12.489107"
       x2="63.397362"
       y2="5.4675598"
       id="linearGradient2407"
       xlink:href="#linearGradient4873"
       gradientUnits="userSpaceOnUse"
       gradientTransform="matrix(1.0862728,0,0,1.0862481,-56.566568,14.813596)" />
    <radialGradient
       cx="23.895569"
       cy="3.9900031"
       r="20.397499"
       fx="23.895569"
       fy="3.9900031"
       id="radialGradient2410"
       xlink:href="#linearGradient3242-187-536"
       gradientUnits="userSpaceOnUse"
       gradientTransform="matrix(0,1.2316137,-1.6257082,0,17.486623,-29.720825)" />
    <linearGradient
       x1="18.379412"
       y1="44.980297"
       x2="18.379412"
       y2="3.0816143"
       id="linearGradient2412"
       xlink:href="#linearGradient2490-182-124"
       gradientUnits="userSpaceOnUse"
       gradientTransform="matrix(0.5160413,0,0,0.5160413,-1.3849489,-1.3850332)" />
  </defs>
  <path
     d="M 11.000044,0.50174288 C 5.2074911,0.50174288 0.50182712,5.2074045 0.50182712,10.999957 C 0.50182712,16.792511 5.2074911,21.498176 11.000044,21.498173 C 16.792594,21.498173 21.498263,16.792511 21.498257,10.999957 C 21.498257,5.2074045 16.792594,0.50174288 11.000044,0.50174288 z"
     id="path2555"
     style="fill:url(#radialGradient2410);fill-opacity:1;stroke:url(#linearGradient2412);stroke-width:1.00365424;stroke-linecap:round;stroke-linejoin:round;stroke-miterlimit:4;stroke-dasharray:none;stroke-dashoffset:0;stroke-opacity:1" />
  <path
     d="M 20.500041,10.999621 C 20.500041,16.246495 16.246432,20.499957 11.000162,20.499957 C 5.7534095,20.499957 1.500042,16.246448 1.500042,10.999621 C 1.500042,5.7529897 5.7534095,1.4999586 11.000162,1.4999586 C 16.246432,1.4999586 20.500041,5.7529897 20.500041,10.999621 L 20.500041,10.999621 z"
     id="path2463"
     style="opacity:0.4;fill:none;fill-opacity:1;fill-rule:nonzero;stroke:url(#linearGradient2407);stroke-width:0.99999994;stroke-miterlimit:4;stroke-dasharray:none;stroke-opacity:1" />
  <path
     d="M 12.62343,5.4885605 C 12.62343,6.3102685 11.929009,6.9771625 11.073382,6.9771625 C 10.217756,6.9771625 9.5233331,6.3102685 9.5233331,5.4885605 C 9.5233331,4.6668525 10.217756,3.9999585 11.073382,3.9999585 C 11.929009,3.9999585 12.62343,4.6668525 12.62343,5.4885605 z M 16.492136,7.0714275 C 16.420443,7.0825835 16.3527,7.1097385 16.29464,7.1506455 L 10.999881,7.9435785 L 5.7336378,7.1397105 C 5.5975058,7.0448885 5.4061098,7.0164935 5.2539988,7.0868925 C 5.1018848,7.1572895 5.0021648,7.3241445 5.0000678,7.4829185 C 4.9981478,7.6417145 5.1037768,7.7786585 5.2539988,7.8525485 L 9.3806131,9.1097329 L 9.3523891,11.995807 L 7.8962728,16.318214 C 7.7560308,16.515039 7.7987748,16.767817 8.0091308,16.899035 C 8.2194958,17.030273 8.5178118,16.990287 8.6580678,16.79344 L 11.007945,12.127823 L 13.313465,16.785377 C 13.438131,16.989527 13.716027,17.060444 13.934183,16.943791 C 14.152338,16.82714 14.22813,16.567101 14.103469,16.362949 L 12.674383,12.021946 L 12.617963,9.3049029 L 16.80248,7.8370845 C 16.971551,7.7261395 17.045001,7.5161035 16.971772,7.3354585 C 16.898537,7.1547945 16.697284,7.0495365 16.492121,7.0714275 L 16.492136,7.0714275 z"
     id="path2503"
     style="opacity:1;fill:#1f4b6a;fill-opacity:1;fill-rule:nonzero;stroke:none;stroke-width:1;stroke-linecap:butt;stroke-linejoin:miter;marker:none;marker-start:none;marker-mid:none;marker-end:none;stroke-miterlimit:4;stroke-dasharray:none;stroke-dashoffset:0;stroke-opacity:1;visibility:visible;display:inline;overflow:visible;enable-background:accumulate" />
  <path
     d="M 12.62343,6.4885602 C 12.62343,7.3102682 11.929009,7.9771622 11.073382,7.9771622 C 10.217756,7.9771622 9.5233331,7.3102682 9.5233331,6.4885602 C 9.5233331,5.6668522 10.217756,4.9999582 11.073382,4.9999582 C 11.929009,4.9999582 12.62343,5.6668522 12.62343,6.4885602 z M 16.492136,8.0714272 C 16.420443,8.0825832 16.3527,8.1097382 16.29464,8.1506452 L 10.999881,8.9435782 L 5.7336378,8.1397102 C 5.5975058,8.0448882 5.4061098,8.0164932 5.2539988,8.0868922 C 5.1018848,8.1572892 5.0021648,8.3241442 5.0000678,8.4829182 C 4.9981478,8.6417142 5.1037768,8.7786582 5.2539988,8.8525482 L 9.3806131,10.109733 L 9.3523891,12.995807 L 7.8962728,17.318214 C 7.7560308,17.515039 7.7987748,17.767817 8.0091308,17.899035 C 8.2194958,18.030273 8.5178118,17.990287 8.6580678,17.79344 L 11.007945,13.127823 L 13.313465,17.785377 C 13.438131,17.989527 13.716027,18.060444 13.934183,17.943791 C 14.152338,17.82714 14.22813,17.567101 14.103469,17.362949 L 12.674383,13.021946 L 12.617963,10.304903 L 16.80248,8.8370842 C 16.971551,8.7261392 17.045001,8.5161032 16.971772,8.3354582 C 16.898537,8.1547942 16.697284,8.0495362 16.492121,8.0714272 L 16.492136,8.0714272 z"
     id="path6668"
     style="fill:#ffffff;fill-opacity:1;stroke:none" />
</svg>

<?xml version="1.0" encoding="UTF-8" standalone="no"?>
<!-- Created with Inkscape (http://www.inkscape.org/) -->
<svg id="svg3275" xmlns="http://www.w3.org/2000/svg" height="22" width="22" version="1.0" xmlns:xlink="http://www.w3.org/1999/xlink">
 <defs id="defs3277">
  <linearGradient id="linearGradient2407" y2="5.4676" gradientUnits="userSpaceOnUse" x2="63.397" gradientTransform="matrix(1.0863 0 0 1.0862 -56.567 14.814)" y1="-12.489" x1="63.397">
   <stop id="stop4875" style="stop-color:#fff" offset="0"/>
   <stop id="stop4877" style="stop-color:#fff;stop-opacity:0" offset="1"/>
  </linearGradient>
  <radialGradient id="radialGradient2410" gradientUnits="userSpaceOnUse" cy="3.99" cx="23.896" gradientTransform="matrix(0 1.2316 -1.6257 0 17.487 -29.721)" r="20.397">
   <stop id="stop2778" style="stop-color:#8badea" offset="0"/>
   <stop id="stop2780" style="stop-color:#6396cd" offset=".26238"/>
   <stop id="stop2782" style="stop-color:#3b7caf" offset=".66094"/>
   <stop id="stop2784" style="stop-color:#194c70" offset="1"/>
  </radialGradient>
  <linearGradient id="linearGradient2412" y2="3.0816" gradientUnits="userSpaceOnUse" x2="18.379" gradientTransform="matrix(.51604 0 0 .51604 -1.3849 -1.385)" y1="44.98" x1="18.379">
   <stop id="stop2788" style="stop-color:#1f4b6a" offset="0"/>
   <stop id="stop2790" style="stop-color:#4083c2" offset="1"/>
  </linearGradient>
 </defs>
 <path id="path2555" style="stroke-linejoin:round;stroke:url(#linearGradient2412);stroke-linecap:round;stroke-width:1.0037;fill:url(#radialGradient2410)" d="m11 0.50174c-5.7925 0-10.498 4.7057-10.498 10.498-0.00017 5.793 4.7055 10.498 10.498 10.498 5.793 0 10.498-4.705 10.498-10.498 0-5.7926-4.705-10.498-10.498-10.498z"/>
 <path id="path2463" style="opacity:.4;stroke:url(#linearGradient2407);fill:none" d="m20.5 11c0 5.246-4.254 9.5-9.5 9.5-5.2466 0-9.5-4.254-9.5-9.5 0-5.247 4.2534-9.5 9.5-9.5 5.246 0 9.5 4.253 9.5 9.5z"/>
 <path id="path2503" style="fill:#1f4b6a" d="m12.623 5.4886c0 0.8217-0.694 1.4886-1.55 1.4886-0.855 0-1.5497-0.6669-1.5497-1.4886s0.6947-1.4886 1.5497-1.4886c0.856 0 1.55 0.6669 1.55 1.4886zm3.869 1.5828c-0.072 0.0112-0.139 0.0383-0.197 0.0792l-5.295 0.793-5.2664-0.8039c-0.1361-0.0948-0.3275-0.1232-0.4796-0.0528s-0.2518 0.2372-0.2539 0.396c-0.002 0.1588 0.1037 0.2958 0.2539 0.3696l4.1266 1.2572-0.0282 2.8863-1.4561 4.322c-0.1403 0.197-0.0975 0.45 0.1128 0.581 0.2104 0.131 0.5087 0.091 0.649-0.106l2.3499-4.665 2.305 4.657c0.125 0.205 0.403 0.275 0.621 0.159 0.218-0.117 0.294-0.377 0.169-0.581l-1.429-4.341-0.056-2.7171 4.184-1.4678c0.17-0.111 0.243-0.321 0.17-0.5016-0.073-0.1807-0.275-0.286-0.48-0.2641z"/>
 <path id="path6668" style="fill:#fff" d="m12.623 6.4886c0 0.8217-0.694 1.4886-1.55 1.4886-0.855 0-1.5497-0.6669-1.5497-1.4886s0.6947-1.4886 1.5497-1.4886c0.856 0 1.55 0.6669 1.55 1.4886zm3.869 1.5828c-0.072 0.0112-0.139 0.0383-0.197 0.0792l-5.295 0.793-5.2664-0.8039c-0.1361-0.0948-0.3275-0.1232-0.4796-0.0528s-0.2518 0.2372-0.2539 0.396c-0.002 0.1588 0.1037 0.2958 0.2539 0.3696l4.1266 1.2575-0.0282 2.886-1.4561 4.322c-0.1403 0.197-0.0975 0.45 0.1128 0.581 0.2104 0.131 0.5087 0.091 0.649-0.106l2.3499-4.665 2.305 4.657c0.125 0.205 0.403 0.275 0.621 0.159 0.218-0.117 0.294-0.377 0.169-0.581l-1.429-4.341-0.056-2.717 4.184-1.4679c0.17-0.111 0.243-0.321 0.17-0.5016-0.073-0.1807-0.275-0.286-0.48-0.2641z"/>
</svg>
